X: 282
T: Miss Elders Reel
R: reel
M: C
L: 1/8
Z: 2012 John Chambers <jc:trillian.mit.edu>
B: J. Anderson "Budget of Strathspeys, Reels and Country Dances" (Early 1800s) p.28 #2
F: http://imslp.org/wiki/Anderson%27s_Budget_of_Strathspeys,_Reels_and_Country_Dances_(Various)
K: D
A |\
D/D/D (AD) FDAF | FDAF EccE | D/D/D (AD) FDdA | BGAE FDD :|
A |\
(de).f.g (af).e.d | cdef gece | (de).f.g (af).e.d | Aaeg fdde |
(de).f.g (af).e.d | cdef gece | afge fdec | dBAG FDD |]

%%sep 2 1 500
%%sep 1 1 500

